; G-Code generated by Simplify3D(R) Version 2.2.2
; Feb 12, 2015 at 8:36:52 PM
; Settings Summary
;   processName,Process1
;   applyToModels,spacers
;   profileLabel,Robo3D R1 (with auto-leveler)
;   printMaterial,PLA
;   printQuality,Medium
;   extruderName,Primary Extruder
;   extruderToolheadNumber,0
;   extruderDiameter,0.4
;   extruderAutoWidth,0
;   extruderWidth,0.4
;   extrusionMultiplier,0.9
;   extruderUseRetract,1
;   extruderRetractionDistance,1
;   extruderExtraRestartDistance,0
;   extruderRetractionZLift,0
;   extruderRetractionSpeed,1800
;   extruderUseCoasting,0
;   extruderCoastingDistance,0.2
;   extruderUseWipe,0
;   extruderWipeDistance,5
;   primaryExtruder,0
;   layerHeight,0.2
;   topSolidLayers,4
;   bottomSolidLayers,4
;   perimeterOutlines,2
;   printPerimetersInsideOut,1
;   startPointOption,2
;   startPointOriginX,0
;   startPointOriginY,0
;   startPointOriginZ,300
;   sequentialIslands,0
;   spiralVaseMode,0
;   firstLayerHeightPercentage,90
;   firstLayerWidthPercentage,100
;   firstLayerUnderspeed,0.35
;   useRaft,0
;   raftExtruder,0
;   raftLayers,3
;   raftOffset,3
;   raftSeparationDistance,0.15
;   raftInfill,80
;   disableRaftBaseLayers,0
;   useSkirt,1
;   skirtExtruder,0
;   skirtLayers,1
;   skirtOutlines,2
;   skirtOffset,5
;   infillExtruder,0
;   externalInfillPattern,Rectilinear
;   infillPercentage,50
;   outlineOverlapPercentage,15
;   infillExtrusionWidthPercentage,100
;   minInfillLength,5
;   infillLayerInterval,1
;   randomInfillStartPoint,0
;   infillAngles,45,-45
;   generateSupport,1
;   supportExtruder,0
;   supportInfill,30
;   supportExtraInflation,0
;   denseSupportLayers,0
;   denseSupportInfill,70
;   supportLayerInterval,1
;   supportHorizontalPartOffset,0.2
;   supportUpperSeparationLayers,1
;   supportLowerSeparationLayers,1
;   supportGridSpacing,1
;   maxOverhangAngle,35
;   supportAngles,0
;   temperatureName,Primary Extruder,Heated Bed
;   temperatureNumber,0,0
;   temperatureSetpointCount,1,1
;   temperatureSetpointLayers,1,1
;   temperatureSetpointTemperatures,205,60
;   temperatureStabilizeAtStartup,1,1
;   temperatureHeatedBed,0,1
;   temperatureRelayBetweenLayers,0,0
;   temperatureRelayBetweenLoops,0,0
;   fanLayers,1,2
;   fanSpeeds,0,100
;   blipFanToFullPower,0
;   adjustSpeedForCooling,1
;   minSpeedLayerTime,15
;   minCoolingSpeedSlowdown,20
;   increaseFanForCooling,0
;   minFanLayerTime,45
;   maxCoolingFanSpeed,100
;   increaseFanForBridging,0
;   bridgingFanSpeed,100
;   use5D,1
;   relativeEdistances,0
;   allowEaxisZeroing,1
;   independentExtruderAxes,0
;   includeM10123,0
;   stickySupport,1
;   detectArcs,0
;   arcReplaceG2G3,0
;   arcRadialCompensation,1
;   gcodeXoffset,0
;   gcodeYoffset,0
;   gcodeZoffset,0
;   overrideMachineDefinition,1
;   machineTypeOverride,0
;   strokeXoverride,228
;   strokeYoverride,254
;   strokeZoverride,203
;   originOffsetXoverride,0
;   originOffsetYoverride,0
;   originOffsetZoverride,0
;   homeXdirOverride,-1
;   homeYdirOverride,-1
;   homeZdirOverride,-1
;   flipXoverride,1
;   flipYoverride,-1
;   flipZoverride,1
;   startingGcode,G28 ; home all axes,G1 Z5 F5000 ; lift Z by 5mm,M565 Z-1 ; set the offset for auto-leveling mechanism,G29 ; run auto-level
;   layerChangeGcode,
;   toolChangeGcode,
;   endingGcode,M104 S0 ; turn off extruder,M140 S0 ; turn off bed,G28 X0 ; home X axis,M84 ; disable motors
;   createX3G,0
;   celebration,0
;   celebrationSong,Random Song
;   createMB5G,0
;   postProcessing,
;   defaultSpeed,3600
;   outlineUnderspeed,0.5
;   solidInfillUnderspeed,0.8
;   supportUnderspeed,0.8
;   rapidXYspeed,4800
;   rapidZspeed,1000
;   minBridgingArea,50
;   bridgingExtrusionMultiplier,1
;   bridgingSpeedMultiplier,1
;   filamentDiameter,1.75
;   filamentPricePerKg,35
;   useMinPrintHeight,0
;   minPrintHeight,0
;   useMaxPrintHeight,0
;   maxPrintHeight,0
;   useDiaphragm,1
;   diaphragmLayerInterval,20
;   robustSlicing,1
;   mergeAllIntoSolid,0
;   onlyRetractWhenCrossingOutline,1
;   retractBetweenLayers,1
;   useRetractionMinTravel,0
;   retractionMinTravel,3
;   useRetractionOozeRate,0
;   retractionOozeRate,100
;   onlyWipeOutlines,1
;   toolChangeRetractionDistance,12
;   toolChangeExtraRestartDistance,-0.5
;   toolChangeRetractionSpeed,600
;   allowThinWallGapFill,1
;   thinWallAllowedOverlapPercentage,10
;   horizontalSizeCompensation,0
G90
M82
M106 S0
M140 S60
M190 S60
M104 S205 T0
M109 S205 T0
G28 ; home all axes
G1 Z5 F5000 ; lift Z by 5mm
M565 Z-1 ; set the offset for auto-leveling mechanism
G29 ; run auto-level
G92 E0
G1 E-1 F1800
G1 Z0.18 F1000
; layer 1, Z = 0.18
T0
; tool H0.2 W0.4
G1 X107.303 Y119.439 F4800
G1 E0 F540
G92 E0
G1 X107.311 Y119.432 E0.0003 F805
G1 X107.454 Y119.308 E0.006
G1 X107.462 Y119.301 E0.0063
G1 X107.859 Y118.981 E0.0216
G1 X107.868 Y118.974 E0.0219
G1 X108.019 Y118.861 E0.0276
G1 X108.028 Y118.854 E0.0279
G1 X108.449 Y118.562 E0.0432
G1 X108.458 Y118.556 E0.0436
G1 X108.619 Y118.453 E0.0493
G1 X108.628 Y118.447 E0.0496
G1 X109.065 Y118.187 E0.0648
G1 X109.074 Y118.182 E0.0651
G1 X109.239 Y118.092 E0.0708
G1 X109.249 Y118.087 E0.0711
G1 X109.704 Y117.859 E0.0863
G1 X109.714 Y117.854 E0.0867
G1 X109.886 Y117.775 E0.0923
G1 X109.896 Y117.771 E0.0926
G1 X110.368 Y117.575 E0.1079
G1 X110.378 Y117.572 E0.1082
G1 X110.555 Y117.505 E0.1139
G1 X110.565 Y117.502 E0.1142
G1 X111.052 Y117.34 E0.1296
G1 X111.062 Y117.336 E0.1299
G1 X111.245 Y117.283 E0.1356
G1 X111.255 Y117.28 E0.1359
G1 X111.75 Y117.153 E0.1512
G1 X111.761 Y117.151 E0.1516
G1 X111.946 Y117.111 E0.1572
G1 X111.956 Y117.109 E0.1575
G1 X112.456 Y117.018 E0.1727
G1 X112.466 Y117.017 E0.1731
G1 X112.652 Y116.99 E0.1787
G1 X112.663 Y116.989 E0.179
G1 X113.17 Y116.934 E0.1943
G1 X113.18 Y116.933 E0.1946
G1 X113.369 Y116.919 E0.2003
G1 X113.38 Y116.919 E0.2006
G1 X113.89 Y116.9 E0.2159
G1 X113.901 Y116.9 E0.2162
G1 X114.09 Y116.9 E0.2218
G1 X114.101 Y116.9 E0.2222
G1 X114.614 Y116.918 E0.2375
G1 X114.624 Y116.919 E0.2378
G1 X114.814 Y116.932 E0.2435
G1 X114.825 Y116.933 E0.2439
G1 X115.33 Y116.988 E0.2591
G1 X115.341 Y116.989 E0.2594
G1 X115.527 Y117.016 E0.265
G1 X115.537 Y117.017 E0.2653
G1 X116.039 Y117.108 E0.2806
G1 X116.05 Y117.11 E0.2809
G1 X116.235 Y117.15 E0.2866
G1 X116.245 Y117.152 E0.2869
G1 X116.74 Y117.278 E0.3022
G1 X116.75 Y117.281 E0.3025
G1 X116.932 Y117.335 E0.3082
G1 X116.942 Y117.338 E0.3085
G1 X117.429 Y117.499 E0.3239
G1 X117.439 Y117.503 E0.3242
G1 X117.618 Y117.57 E0.3299
G1 X117.628 Y117.574 E0.3302
G1 X118.097 Y117.768 E0.3454
G1 X118.107 Y117.772 E0.3457
G1 X118.278 Y117.85 E0.3514
G1 X118.288 Y117.855 E0.3517
G1 X118.744 Y118.083 E0.367
G1 X118.753 Y118.088 E0.3673
G1 X118.919 Y118.179 E0.3729
G1 X118.929 Y118.184 E0.3733
G1 X119.368 Y118.444 E0.3885
G1 X119.377 Y118.45 E0.3889
G1 X119.536 Y118.552 E0.3945
G1 X119.545 Y118.558 E0.3948
G1 X119.967 Y118.85 E0.4102
G1 X119.975 Y118.857 E0.4105
G1 X120.128 Y118.971 E0.4162
G1 X120.136 Y118.977 E0.4165
G1 X120.532 Y119.296 E0.4318
G1 X120.54 Y119.303 E0.4321
G1 X120.682 Y119.426 E0.4377
G1 X120.69 Y119.433 E0.438
G1 X121.064 Y119.781 E0.4533
G1 X121.071 Y119.788 E0.4536
G1 X121.205 Y119.922 E0.4593
G1 X121.213 Y119.93 E0.4596
G1 X121.561 Y120.303 E0.4749
G1 X121.568 Y120.311 E0.4752
G1 X121.692 Y120.454 E0.4809
G1 X121.699 Y120.462 E0.4812
G1 X122.021 Y120.862 E0.4965
G1 X122.028 Y120.87 E0.4969
G1 X122.142 Y121.022 E0.5026
G1 X122.148 Y121.031 E0.5029
G1 X122.438 Y121.449 E0.5181
G1 X122.444 Y121.458 E0.5184
G1 X122.546 Y121.616 E0.5241
G1 X122.551 Y121.625 E0.5244
G1 X122.812 Y122.063 E0.5396
G1 X122.817 Y122.073 E0.54
G1 X122.908 Y122.239 E0.5456
G1 X122.913 Y122.248 E0.5459
G1 X123.143 Y122.707 E0.5613
G1 X123.147 Y122.717 E0.5616
G1 X123.226 Y122.89 E0.5673
G1 X123.231 Y122.9 E0.5676
G1 X123.425 Y123.369 E0.5829
G1 X123.429 Y123.379 E0.5832
G1 X123.495 Y123.555 E0.5888
G1 X123.498 Y123.565 E0.5891
G1 X123.66 Y124.049 E0.6044
G1 X123.663 Y124.059 E0.6047
G1 X123.716 Y124.241 E0.6104
G1 X123.719 Y124.251 E0.6107
G1 X123.845 Y124.746 E0.626
G1 X123.848 Y124.756 E0.6263
G1 X123.888 Y124.941 E0.632
G1 X123.89 Y124.952 E0.6323
G1 X123.982 Y125.457 E0.6476
G1 X123.983 Y125.467 E0.648
G1 X124.011 Y125.656 E0.6537
G1 X124.012 Y125.666 E0.654
G1 X124.067 Y126.174 E0.6693
G1 X124.068 Y126.185 E0.6696
G1 X124.081 Y126.374 E0.6753
G1 X124.082 Y126.384 E0.6756
G1 X124.1 Y126.895 E0.6909
G1 X124.1 Y126.905 E0.6912
G1 X124.1 Y127.095 E0.6969
G1 X124.1 Y127.105 E0.6972
G1 X124.082 Y127.613 E0.7124
G1 X124.081 Y127.624 E0.7127
G1 X124.068 Y127.811 E0.7183
G1 X124.067 Y127.822 E0.7186
G1 X124.012 Y128.331 E0.734
G1 X124.011 Y128.342 E0.7343
G1 X123.984 Y128.53 E0.74
G1 X123.982 Y128.541 E0.7403
G1 X123.891 Y129.044 E0.7556
G1 X123.889 Y129.054 E0.756
G1 X123.849 Y129.239 E0.7616
G1 X123.847 Y129.25 E0.7619
G1 X123.721 Y129.742 E0.7771
G1 X123.718 Y129.752 E0.7775
G1 X123.665 Y129.932 E0.7831
G1 X123.662 Y129.943 E0.7834
G1 X123.501 Y130.426 E0.7987
G1 X123.498 Y130.436 E0.799
G1 X123.432 Y130.614 E0.8047
G1 X123.428 Y130.624 E0.805
G1 X123.233 Y131.096 E0.8203
G1 X123.228 Y131.105 E0.8206
G1 X123.15 Y131.278 E0.8262
G1 X123.145 Y131.287 E0.8266
G1 X122.917 Y131.744 E0.8418
G1 X122.912 Y131.753 E0.8422
G1 X122.821 Y131.919 E0.8478
G1 X122.816 Y131.929 E0.8481
G1 X122.555 Y132.37 E0.8635
G1 X122.549 Y132.379 E0.8638
G1 X122.446 Y132.539 E0.8695
G1 X122.44 Y132.548 E0.8698
G1 X122.15 Y132.966 E0.8851
G1 X122.144 Y132.975 E0.8854
G1 X122.031 Y133.125 E0.891
G1 X122.024 Y133.134 E0.8913
G1 X121.703 Y133.533 E0.9067
G1 X121.696 Y133.541 E0.907
G1 X121.572 Y133.685 E0.9127
G1 X121.564 Y133.693 E0.913
G1 X121.218 Y134.065 E0.9282
G1 X121.211 Y134.073 E0.9286
G1 X121.078 Y134.206 E0.9342
G1 X121.07 Y134.213 E0.9345
G1 X120.697 Y134.561 E0.9498
G1 X120.689 Y134.568 E0.9501
G1 X120.546 Y134.692 E0.9558
G1 X120.538 Y134.699 E0.9561
G1 X120.14 Y135.019 E0.9714
G1 X120.132 Y135.026 E0.9717
G1 X119.981 Y135.139 E0.9773
G1 X119.972 Y135.146 E0.9777
G1 X119.553 Y135.437 E0.9929
G1 X119.544 Y135.443 E0.9933
G1 X119.385 Y135.545 E0.9989
G1 X119.376 Y135.551 E0.9992
G1 X118.937 Y135.812 E1.0145
G1 X118.927 Y135.817 E1.0148
G1 X118.761 Y135.908 E1.0205
G1 X118.752 Y135.913 E1.0208
G1 X118.296 Y136.141 E1.0361
G1 X118.286 Y136.146 E1.0364
G1 X118.114 Y136.225 E1.0421
G1 X118.104 Y136.229 E1.0424
G1 X117.633 Y136.424 E1.0577
G1 X117.623 Y136.428 E1.058
G1 X117.445 Y136.495 E1.0637
G1 X117.435 Y136.498 E1.064
G1 X116.951 Y136.66 E1.0793
G1 X116.941 Y136.663 E1.0796
G1 X116.759 Y136.716 E1.0853
G1 X116.749 Y136.719 E1.0856
G1 X116.252 Y136.846 E1.1009
G1 X116.241 Y136.849 E1.1013
G1 X116.055 Y136.889 E1.107
G1 X116.045 Y136.891 E1.1073
G1 X115.544 Y136.982 E1.1225
G1 X115.534 Y136.983 E1.1228
G1 X115.348 Y137.01 E1.1285
G1 X115.337 Y137.011 E1.1288
G1 X114.83 Y137.066 E1.144
G1 X114.82 Y137.067 E1.1444
G1 X114.631 Y137.081 E1.15
G1 X114.62 Y137.081 E1.1503
G1 X114.11 Y137.1 E1.1656
G1 X114.099 Y137.1 E1.1659
G1 X113.91 Y137.1 E1.1716
G1 X113.899 Y137.1 E1.1719
G1 X113.389 Y137.082 E1.1872
G1 X113.379 Y137.081 E1.1875
G1 X113.19 Y137.068 E1.1932
G1 X113.179 Y137.067 E1.1935
G1 X112.671 Y137.013 E1.2088
G1 X112.661 Y137.011 E1.2091
G1 X112.473 Y136.984 E1.2148
G1 X112.463 Y136.983 E1.2151
G1 X111.96 Y136.892 E1.2304
G1 X111.95 Y136.89 E1.2307
G1 X111.765 Y136.85 E1.2364
G1 X111.755 Y136.848 E1.2367
G1 X111.258 Y136.721 E1.252
G1 X111.247 Y136.718 E1.2524
G1 X111.064 Y136.664 E1.2581
G1 X111.054 Y136.661 E1.2584
G1 X110.572 Y136.501 E1.2736
G1 X110.562 Y136.497 E1.2739
G1 X110.385 Y136.431 E1.2796
G1 X110.375 Y136.428 E1.2799
G1 X109.902 Y136.232 E1.2952
G1 X109.892 Y136.227 E1.2955
G1 X109.719 Y136.148 E1.3012
G1 X109.709 Y136.144 E1.3016
G1 X109.255 Y135.916 E1.3168
G1 X109.245 Y135.911 E1.3171
G1 X109.08 Y135.821 E1.3227
G1 X109.071 Y135.816 E1.323
G1 X108.632 Y135.556 E1.3383
G1 X108.623 Y135.55 E1.3386
G1 X108.464 Y135.448 E1.3443
G1 X108.455 Y135.442 E1.3446
G1 X108.033 Y135.15 E1.36
G1 X108.025 Y135.143 E1.3603
G1 X107.872 Y135.029 E1.366
G1 X107.864 Y135.023 E1.3663
G1 X107.468 Y134.704 E1.3815
G1 X107.46 Y134.697 E1.3819
G1 X107.317 Y134.574 E1.3875
G1 X107.309 Y134.567 E1.3878
G1 X106.934 Y134.217 E1.4031
G1 X106.926 Y134.21 E1.4035
G1 X106.792 Y134.075 E1.4092
G1 X106.784 Y134.068 E1.4095
G1 X106.438 Y133.695 E1.4247
G1 X106.431 Y133.688 E1.425
G1 X106.308 Y133.546 E1.4307
G1 X106.301 Y133.537 E1.431
G1 X105.979 Y133.138 E1.4463
G1 X105.972 Y133.13 E1.4466
G1 X105.858 Y132.978 E1.4523
G1 X105.852 Y132.969 E1.4527
G1 X105.562 Y132.551 E1.4679
G1 X105.556 Y132.542 E1.4682
G1 X105.454 Y132.384 E1.4738
G1 X105.449 Y132.375 E1.4741
G1 X105.187 Y131.934 E1.4895
G1 X105.182 Y131.925 E1.4898
G1 X105.09 Y131.758 E1.4955
G1 X105.085 Y131.749 E1.4958
G1 X104.858 Y131.294 E1.511
G1 X104.853 Y131.284 E1.5114
G1 X104.775 Y131.113 E1.517
G1 X104.771 Y131.103 E1.5173
G1 X104.576 Y130.632 E1.5326
G1 X104.572 Y130.622 E1.5329
G1 X104.505 Y130.445 E1.5386
G1 X104.502 Y130.435 E1.5389
G1 X104.34 Y129.948 E1.5542
G1 X104.336 Y129.938 E1.5546
G1 X104.283 Y129.755 E1.5603
G1 X104.28 Y129.745 E1.5606
G1 X104.154 Y129.252 E1.5758
G1 X104.152 Y129.242 E1.5761
G1 X104.112 Y129.058 E1.5818
G1 X104.109 Y129.048 E1.5821
G1 X104.018 Y128.543 E1.5974
G1 X104.017 Y128.533 E1.5977
G1 X103.989 Y128.344 E1.6034
G1 X103.988 Y128.334 E1.6038
G1 X103.934 Y127.828 E1.619
G1 X103.933 Y127.818 E1.6193
G1 X103.919 Y127.63 E1.6249
G1 X103.919 Y127.619 E1.6252
G1 X103.9 Y127.107 E1.6406
G1 X103.9 Y127.096 E1.6409
G1 X103.9 Y126.906 E1.6466
G1 X103.9 Y126.895 E1.6469
G1 X103.918 Y126.387 E1.6621
G1 X103.919 Y126.377 E1.6625
G1 X103.932 Y126.189 E1.6681
G1 X103.933 Y126.178 E1.6684
G1 X103.988 Y125.669 E1.6838
G1 X103.989 Y125.658 E1.6841
G1 X104.016 Y125.47 E1.6898
G1 X104.018 Y125.459 E1.6901
G1 X104.108 Y124.959 E1.7053
G1 X104.11 Y124.948 E1.7056
G1 X104.15 Y124.764 E1.7113
G1 X104.153 Y124.754 E1.7116
G1 X104.278 Y124.26 E1.7269
G1 X104.281 Y124.25 E1.7272
G1 X104.335 Y124.068 E1.7328
G1 X104.338 Y124.058 E1.7332
G1 X104.499 Y123.571 E1.7485
G1 X104.503 Y123.561 E1.7488
G1 X104.57 Y123.382 E1.7545
G1 X104.574 Y123.372 E1.7549
G1 X104.768 Y122.903 E1.7701
G1 X104.772 Y122.893 E1.7704
G1 X104.85 Y122.722 E1.776
G1 X104.855 Y122.712 E1.7763
G1 X105.084 Y122.254 E1.7917
G1 X105.089 Y122.244 E1.792
G1 X105.18 Y122.077 E1.7977
G1 X105.186 Y122.068 E1.798
G1 X105.445 Y121.63 E1.8133
G1 X105.451 Y121.621 E1.8136
G1 X105.552 Y121.463 E1.8192
G1 X105.558 Y121.454 E1.8195
G1 X105.85 Y121.033 E1.8349
G1 X105.857 Y121.025 E1.8352
G1 X105.971 Y120.872 E1.8409
G1 X105.977 Y120.864 E1.8412
G1 X106.296 Y120.468 E1.8564
G1 X106.303 Y120.46 E1.8567
G1 X106.426 Y120.318 E1.8624
G1 X106.433 Y120.31 E1.8627
G1 X106.781 Y119.936 E1.8779
G1 X106.788 Y119.929 E1.8783
G1 X106.922 Y119.795 E1.8839
G1 X106.93 Y119.787 E1.8843
G1 X107.303 Y119.439 E1.8995
G1 X107.573 Y119.734 F4800
G92 E0
G1 X107.576 Y119.732 E0.0001 F805
G1 X107.713 Y119.612 E0.0056
G1 X107.716 Y119.61 E0.0057
G1 X108.108 Y119.294 E0.0207
G1 X108.111 Y119.292 E0.0208
G1 X108.256 Y119.183 E0.0263
G1 X108.259 Y119.181 E0.0264
G1 X108.675 Y118.892 E0.0415
G1 X108.678 Y118.89 E0.0416
G1 X108.832 Y118.791 E0.0471
G1 X108.835 Y118.789 E0.0472
G1 X109.266 Y118.533 E0.0622
G1 X109.269 Y118.531 E0.0623
G1 X109.428 Y118.445 E0.0678
G1 X109.431 Y118.443 E0.0679
G1 X109.88 Y118.218 E0.0829
G1 X109.884 Y118.216 E0.083
G1 X110.049 Y118.141 E0.0885
G1 X110.053 Y118.139 E0.0886
G1 X110.518 Y117.946 E0.1037
G1 X110.521 Y117.945 E0.1038
G1 X110.691 Y117.881 E0.1092
G1 X110.695 Y117.88 E0.1093
G1 X111.175 Y117.72 E0.1245
G1 X111.178 Y117.719 E0.1246
G1 X111.354 Y117.667 E0.1301
G1 X111.357 Y117.666 E0.1302
G1 X111.846 Y117.542 E0.1452
G1 X111.849 Y117.541 E0.1453
G1 X112.027 Y117.502 E0.1508
G1 X112.031 Y117.502 E0.1509
G1 X112.523 Y117.413 E0.1659
G1 X112.527 Y117.412 E0.166
G1 X112.706 Y117.386 E0.1714
G1 X112.709 Y117.386 E0.1715
G1 X113.209 Y117.332 E0.1866
G1 X113.213 Y117.332 E0.1867
G1 X113.394 Y117.319 E0.1921
G1 X113.398 Y117.318 E0.1922
G1 X113.901 Y117.3 E0.2073
G1 X113.905 Y117.3 E0.2074
G1 X114.087 Y117.3 E0.2129
